website/media/images/svg/button-arrow-fulled.svg

<svg width="5" height="5" viewBox="0 0 5 5" fill="none" xmlns="http://www.w3.org/2000/svg">
<path d="M2.60267 2.50161L1.04203 0.940913C0.962737 0.861695 0.923179 0.764806 0.923179 0.650258C0.923179 0.535722 0.962749 0.438878 1.04203 0.359671L1.28284 0.118788C1.36201 0.0396035 1.45891 0 1.57341 0C1.68792 0 1.78477 0.0396035 1.86407 0.118788L3.95782 2.20935C4.03705 2.28857 4.07666 2.38545 4.07666 2.50001C4.07666 2.61456 4.03706 2.71136 3.95782 2.79062L1.86408 4.88118C1.78478 4.9604 1.68794 5 1.57343 5C1.45891 5 1.36202 4.9604 1.28285 4.88118L1.04205 4.64034C0.962749 4.56117 0.92319 4.46483 0.92319 4.35131C0.92319 4.23787 0.96276 4.14045 1.04205 4.05911L2.60267 2.50161Z" fill="white"/>
</svg>

<svg width="5" height="5" viewBox="0 0 5 5" fill="none" xmlns="http://www.w3.org/2000/svg"><path d="M2.603 2.502L1.042.94A.395.395 0 01.923.65c0-.115.04-.212.119-.291l.24-.241A.395.395 0 011.574 0c.115 0 .212.04.291.119l2.094 2.09c.079.08.119.176.119.291a.39.39 0 01-.12.29L1.865 4.882a.396.396 0 01-.29.119.395.395 0 01-.291-.119l-.241-.24a.393.393 0 01-.119-.29c0-.113.04-.21.119-.292l1.56-1.557z" fill="#fff"/></svg>
